X: 21153
T: Kath's Joy
R: waltz
M: 3/4
K: Dmajor
dB4A/E/|:"D"F2d3F/D/|"A"E2c3E|"G"D2B3A|"A"FEF ABc|
"D"F2d3F/D/|"A"E2c2c<d|"G"B4B2|Bc AB GE|
"D"F2d3F/D/|"A"E2c3E|"G"D2B3A|"A"FEF ABc|
"D"F2d3F/D/|"A"E2c2c<d|"G"B4B2|BAB cde|
"D"f2d3f|"A"e2c3e/c/|"G"d2B2B/c/d|"A"cE A/B/c dB|
"D"f2d3f|"A"e2c3e|"G"edB4|BAB cde|
"D"f2fg/e/ f/e/d|"G"B2g2fg|"A"e2ed c/d/e|A3B c/d/e|
"D"d2fe dc|"A"BE cE d2|e6|"D"dB4A/E/:|

